icon-themes/colibre_svg/cmd/sc_notesmasterpage.svg

<svg viewBox="0 0 16 16" xmlns="http://www.w3.org/2000/svg"><path d="m2 1v14h4.2167969l.59375-2.408203c2.053886-2.052039 4.1045721-4.1063434 6.1562501-6.1367189.282819-.2824756.661841-.4327221 1.033203-.4492187v-5.0058594zm12 11.496094c-.842316.823797-1.672943 1.662093-2.5 2.503906h2.5z" fill="#fff"/><path d="m1 0v16h4.9707031l.2460938-1h-4.2167969v-14h12v5.0058594c.022126-.0009829.044358-.0058594.066406-.0058594.325044 0 .657562.1132637.933594.3203125v-6.3203125zm2 5v1h1v-1zm2 0v1h8v-1zm-2 2v1h1v-1zm2 0v1h6.416016c.334411-.3326704.66948-.6683642 1.003906-1zm10 4.525391c-.333699.323053-.668026.646027-1 .970703v2.503906h-2.5c-.328878.334745-.664428.661206-.990234 1h4.490234z" fill="#4d82b8"/><g fill="#eac282"><path d="m3 2v2h10v-2z"/><path d="m11.861005 8.958496-4.1469731 4.142578-.713379 2.898926 2.8549808-.758789 4.1323233-4.158692z"/><path d="m14.065594 7c-.142171 0-.283638.05379-.392578.1625977l-1.255371 1.2524416 2.135742 2.1372067 1.283203-1.229004c.21788-.2175952.21788-.5675602 0-.7851562l-1.376953-1.3754881c-.108941-.108798-.251871-.1625977-.394043-.1625977z"/></g></svg>

<svg viewBox="0 0 16 16" xmlns="http://www.w3.org/2000/svg">
  <path
     style="fill:#ffffff"
     d="M 2 1 L 2 15 L 6.2167969 15 L 6.8105469 12.591797 C 8.8644329 10.539758 10.915119 8.4854536 12.966797 6.4550781 C 13.249616 6.1726025 13.628638 6.022356 14 6.0058594 L 14 1 L 2 1 z M 14 12.496094 C 13.157684 13.319891 12.327057 14.158187 11.5 15 L 14 15 L 14 12.496094 z "
     />
  <path
     style="fill:#4d82b8"
     d="M 1 0 L 1 16 L 5.9707031 16 L 6.2167969 15 L 2 15 L 2 1 L 14 1 L 14 6.0058594 C 14.022126 6.0048765 14.044358 6 14.066406 6 C 14.39145 6 14.723968 6.1132637 15 6.3203125 L 15 0 L 1 0 z M 3 5 L 3 6 L 4 6 L 4 5 L 3 5 z M 5 5 L 5 6 L 13 6 L 13 5 L 5 5 z M 3 7 L 3 8 L 4 8 L 4 7 L 3 7 z M 5 7 L 5 8 L 11.416016 8 C 11.750427 7.6673296 12.085496 7.3316358 12.419922 7 L 5 7 z M 15 11.525391 C 14.666301 11.848444 14.331974 12.171418 14 12.496094 L 14 15 L 11.5 15 C 11.171122 15.334745 10.835572 15.661206 10.509766 16 L 15 16 L 15 11.525391 z "
     />
  <path
     style="fill:#eac282"
     d="M 3,2 V 4 H 13 V 2 Z"
     />
  <g
     fill="#eac282"
     >
    <path
       d="m11.861005 8.958496-4.1469731 4.142578-.713379 2.898926 2.8549808-.758789 4.1323233-4.158692z"
       />
    <path
       d="m14.065594 7c-.142171 0-.283638.05379-.392578.1625977l-1.255371 1.2524416 2.135742 2.1372067 1.283203-1.229004c.21788-.2175952.21788-.5675602 0-.7851562l-1.376953-1.3754881c-.108941-.108798-.251871-.1625977-.394043-.1625977z"
       />
  </g>
</svg>
